src/assets/images/toolbox/apollo.svg

<svg
  width="32"
  height="32"
  viewBox="0 0 32 32"
  fill="transparent"
  xmlns="http://www.w3.org/2000/svg">
  <path
    fill="#112B49"
    d="M20.0284 22.3149H23.4821L17.9688 8.00613H14.1501L8.63675 22.3149H12.0907L12.9917 19.8911H18.2011L17.2581 17.2091H13.8281L16.0594 11.0524L20.0284 22.3149ZM31.4174 11.721C31.3883 11.6158 31.3387 11.5173 31.2715 11.4313C31.2043 11.3452 31.1208 11.2733 31.0258 11.2196C30.9308 11.1659 30.8261 11.1314 30.7177 11.1182C30.6093 11.105 30.4994 11.1133 30.3943 11.1426C30.1819 11.2016 30.0017 11.3424 29.8932 11.5343C29.7847 11.7261 29.7568 11.9531 29.8158 12.1655C30.1624 13.4142 30.3381 14.7041 30.338 16C30.338 23.906 23.906 30.3377 16 30.3377C8.094 30.3377 1.66212 23.906 1.66212 16C1.66212 8.09387 8.094 1.662 16 1.662C19.3491 1.662 22.5898 2.85175 25.1474 4.969C25.045 5.21336 24.9924 5.47569 24.9926 5.74062C24.9926 6.845 25.8879 7.74025 26.9923 7.74025C28.0966 7.74025 28.9919 6.845 28.9919 5.74062C28.9919 4.63625 28.0966 3.741 26.9923 3.741C26.7796 3.741 26.575 3.77487 26.3827 3.83637C23.5027 1.382 19.8141 0 16 0C7.17762 0 0 7.1775 0 16C0 24.8224 7.17762 31.9999 16 31.9999C24.8224 31.9999 32 24.8224 32 16C32.0001 14.5539 31.8041 13.1144 31.4174 11.721Z"
  />
</svg>

<svg xmlns="http://www.w3.org/2000/svg" width="32" height="32" fill="transparent" xmlns:v="https://vecta.io/nano">
  <path fill="#112b49"
    d="M20.028 22.315h3.454L17.969 8.006H14.15L8.637 22.315h3.454l.901-2.424h5.209l-.943-2.682h-3.43l2.231-6.157 3.969 11.263zm11.389-10.594a.83.83 0 0 0-.392-.501.83.83 0 0 0-.631-.077.83.83 0 0 0-.579 1.023c.347 1.249.522 2.539.522 3.835 0 7.906-6.432 14.338-14.338 14.338S1.662 23.906 1.662 16 8.094 1.662 16 1.662c3.349 0 6.59 1.19 9.147 3.307-.102.244-.155.507-.155.772a2 2 0 0 0 2 2 2 2 0 0 0 2-2 2 2 0 0 0-2-2c-.213 0-.417.034-.61.095C23.503 1.382 19.814 0 16 0 7.178 0 0 7.178 0 16s7.178 16 16 16 16-7.178 16-16c0-1.446-.196-2.886-.583-4.279z" />
</svg>
